public/static/img/market/todcondis.svg

<svg xmlns="http://www.w3.org/2000/svg" width="158" height="80" viewBox="0 0 158 80" fill="none">
  <line y1="77.5" x2="156" y2="77.5" stroke="#414345"/>
  <line x1="0.5" y1="75" x2="0.5" y2="80" stroke="#414345"/>
  <line x1="78.5" y1="75" x2="78.5" y2="80" stroke="#414345"/>
  <line x1="156.5" y1="75" x2="156.5" y2="80" stroke="#414345"/>
  <path d="M13.5 19.0001C11.1 31.0001 4.83333 40.0001 1 43.0001V78H156.5V7.5C154.333 10.1667 149.4 15.5 147 15.5C144 15.5 132.5 26.5001 125 19.0001C117.5 11.5001 111.5 30 102.5 26.5001C93.5 23.0002 96.5 43.0001 89 43.0001C81.5 43.0001 87.5 35.5 82.5 30C77.5 24.5 79 35 72 35.5C65 36 63.5 35 64 26.5001C64.5 18.0002 62 19.0001 57.5 15.5C53 11.9999 61 43.0001 49.5 43.0001C38 43.0001 44.5 32 37 23.5C29.5 15 34.5 2.50027 30 1.50027C25.5 0.500266 28 27.0001 22 26.5001C16 26.0001 16.5 4.00011 13.5 19.0001Z" fill="url(#paint0_linear_191_3077)"/>
  <path d="M1 43.0001C4.83333 40.0001 11.1 31.0001 13.5 19.0001C16.5 4.00011 16 26.0001 22 26.5001C28 27.0001 25.5 0.500266 30 1.50027C34.5 2.50027 29.5 15 37 23.5C44.5 32 38 43.0001 49.5 43.0001C61 43.0001 53 11.9999 57.5 15.5C62 19.0001 64.5 18.0002 64 26.5001C63.5 35 65 36 72 35.5C79 35 77.5 24.5 82.5 30C87.5 35.5 81.5 43.0001 89 43.0001C96.5 43.0001 93.5 23.0002 102.5 26.5001C111.5 30 117.5 11.5001 125 19.0001C132.5 26.5001 134 21 147 15.5C149.21 14.5649 154.333 10.1667 156.5 7.5" stroke="#00A609" stroke-width="2" stroke-linecap="round" stroke-linejoin="round"/>
  <defs>
    <linearGradient id="paint0_linear_191_3077" x1="58.188" y1="9.12539" x2="58.188" y2="78" gradientUnits="userSpaceOnUse">
      <stop stop-color="#00A609" stop-opacity="0.3"/>
      <stop offset="1" stop-color="#00A609" stop-opacity="0"/>
    </linearGradient>
  </defs>
</svg>

<svg xmlns="http://www.w3.org/2000/svg" width="158" height="80" fill="none"><path stroke="#414345" d="M0 77.5h156M.5 75v5m78-5v5m78-5v5"/><path d="M13.5 19C11.1 31 4.833 40 1 43v35h155.5V7.5c-2.167 2.667-7.1 8-9.5 8-3 0-14.5 11-22 3.5s-13.5 11-22.5 7.5S96.5 43 89 43s-1.5-7.5-6.5-13S79 35 72 35.5s-8.5-.5-8-9-2-7.5-6.5-11S61 43 49.5 43s-5-11-12.5-19.5-2.5-21-7-22-2 25.5-8 25S16.5 4 13.5 19Z" fill="url(#a)"/><path d="M1 43c3.833-3 10.1-12 12.5-24 3-15 2.5 7 8.5 7.5s3.5-26 8-25-.5 13.5 7 22S38 43 49.5 43s3.5-31 8-27.5 7 2.5 6.5 11 1 9.5 8 9 5.5-11 10.5-5.5-1 13 6.5 13 4.5-20 13.5-16.5 15-15 22.5-7.5 9 2 22-3.5c2.21-.935 7.333-5.333 9.5-8" stroke="#00A609" stroke-width="2" stroke-linecap="round" stroke-linejoin="round"/><defs><linearGradient id="a" x1="58.188" y1="9.125" x2="58.188" y2="78" gradientUnits="userSpaceOnUse"><stop stop-color="#00A609" stop-opacity=".3"/><stop offset="1" stop-color="#00A609" stop-opacity="0"/></linearGradient></defs></svg>
